brandFactory_export/1.Light/API_1Light.svg

<?xml version="1.0" encoding="UTF-8"?>
<svg width="24px" height="24px" viewBox="0 0 24 24" version="1.1" xmlns="http://www.w3.org/2000/svg" xmlns:xlink="http://www.w3.org/1999/xlink">
    <title>1.Light/API_1Light</title>
    <g id="Symbols" stroke="none" stroke-width="1" fill="none" fill-rule="evenodd">
        <g id="1.Light/API_1Light" fill="#5CB615" fill-rule="nonzero">
            <path d="M22.1176471,3.0302521 C22.9478992,3.0302521 23.6235294,3.68571429 23.6235294,4.48907563 L23.6235294,19.2890756 C23.6235294,20.092437 22.9478992,20.7478992 22.1176471,20.7478992 L1.50588235,20.7478992 C0.675630252,20.7478992 2.19149143e-10,20.092437 2.19149143e-10,19.2890756 L2.19149143e-10,4.48907563 C2.19149143e-10,3.68571429 0.675630252,3.0302521 1.50588235,3.0302521 L22.1176471,3.0302521 Z M22.6386555,7.85042017 L0.98487395,7.85042017 L0.98487395,19.2890756 C0.98487395,19.5680672 1.21680672,19.7932773 1.50588235,19.7932773 L14.8,19.7932773 C14.8436975,19.6184874 14.9210084,19.4537815 15.0554622,19.3260504 L15.5630252,18.8352941 C15.4890756,18.6504202 15.4352941,18.4621849 15.394958,18.297479 L14.7831933,18.297479 C14.2151261,18.297479 13.7546218,17.8504202 13.7546218,17.2991597 L13.7546218,16.502521 C13.7546218,15.9546218 14.2151261,15.5042017 14.7831933,15.5042017 L15.394958,15.5042017 C15.4352941,15.3394958 15.4890756,15.1478992 15.5630252,14.9630252 L15.0554622,14.4722689 C14.8605042,14.2806723 14.7529412,14.0285714 14.7529412,13.7630252 C14.7529412,13.4907563 14.8605042,13.2420168 15.0588235,13.0504202 L15.6571429,12.4689076 C16.0470588,12.0890756 16.7361345,12.0890756 17.1260504,12.4689076 L17.6369748,12.9630252 C17.8117647,12.8957983 17.9966387,12.8420168 18.1882353,12.794958 L18.1882353,12.2033613 C18.1882353,11.6521008 18.6521008,11.205042 19.2168067,11.205042 L20.0403361,11.205042 C20.6084034,11.205042 21.0689076,11.6521008 21.0689076,12.2033613 L21.0689076,12.794958 C21.2605042,12.8420168 21.4420168,12.8957983 21.6201681,12.9630252 L22.1310924,12.4655462 C22.2722689,12.3277311 22.4504202,12.2369748 22.6386555,12.1966387 L22.6386555,7.85042017 Z M19.2168067,12.1596639 L19.1731092,13.1848739 C19.1731092,13.4201681 18.9983193,13.6184874 18.7596639,13.6554622 C18.3798319,13.7159664 18.0369748,13.8168067 17.7445378,13.9579832 C17.5529412,14.0487395 17.3243697,14.0117647 17.1764706,13.8672269 L16.4268908,13.1411765 L15.7512605,13.7226891 L16.5008403,14.5159664 C16.6588235,14.6672269 16.6890756,14.902521 16.5815126,15.087395 C16.4470588,15.312605 16.3361345,15.7361345 16.2823529,16.0487395 C16.2453782,16.2806723 16.0369748,16.4487395 15.794958,16.4487395 L14.7798319,16.4487395 L14.7361345,17.2890756 L15.794958,17.3327731 C16.0369748,17.3327731 16.2420168,17.5008403 16.2823529,17.7327731 C16.3361345,18.0487395 16.4470588,18.4655462 16.5815126,18.6941176 C16.6890756,18.8823529 16.6588235,19.1176471 16.5008403,19.2689076 L15.9630252,19.7865546 L22.1176471,19.7865546 L22.1176471,19.789916 C22.4033613,19.789916 22.6386555,19.5647059 22.6386555,19.2857143 L22.6386555,13.3529412 L22.0773109,13.8705882 C21.9294118,14.0151261 21.7008403,14.0521008 21.512605,13.9613445 C21.2,13.8134454 20.8773109,13.7159664 20.497479,13.6554622 C20.2554622,13.6184874 20.0840336,13.4201681 20.0840336,13.1848739 L20.0840336,12.2033613 L19.2168067,12.1596639 Z M19.6235294,14.3781513 C21.2504202,14.3781513 22.2218487,15.3193277 22.2218487,16.8957983 C22.2218487,18.4722689 21.2504202,19.4134454 19.6235294,19.4134454 C17.9966387,19.4134454 17.0252101,18.4722689 17.0252101,16.8957983 C17.0252101,15.3193277 17.9966387,14.3781513 19.6235294,14.3781513 Z M19.6235294,15.3361345 C18.5378151,15.3361345 18.010084,15.8470588 18.010084,16.8991597 C18.010084,17.9512605 18.5378151,18.4621849 19.6235294,18.4621849 C20.7092437,18.4621849 21.2369748,17.9512605 21.2369748,16.8991597 C21.2369748,15.8470588 20.7092437,15.3361345 19.6235294,15.3361345 Z M8.65882353,10.8991597 C9.33781513,10.8991597 9.76806723,10.9932773 10.0470588,11.2554622 C10.2823529,11.4705882 10.3966387,11.8067227 10.3966387,12.2705882 C10.3966387,12.7344538 10.2890756,13.0806723 10.0739496,13.3226891 C9.82184874,13.6084034 9.42857143,13.7394958 8.85714286,13.7394958 L8.16134454,13.7394958 L8.16134454,15.2352941 L7.17310924,15.2352941 L7.17310924,10.8991597 L8.65882353,10.8991597 Z M5.10252101,10.8991597 L6.66554622,15.2319328 L5.60672269,15.2319328 L5.24705882,14.1428571 L3.84201681,14.1428571 L3.50588235,15.2319328 L2.56470588,15.2319328 L4.01344538,10.8991597 L5.10252101,10.8991597 Z M12.0941176,10.8991597 L12.0941176,15.2319328 L11.1058824,15.2319328 L11.1058824,10.8991597 L12.0941176,10.8991597 Z M4.53445378,11.9815126 L4.5210084,11.9815126 L4.07058824,13.4268908 L5.00840336,13.4268908 L4.53445378,11.9815126 Z M8.6184874,11.6151261 L8.15462185,11.6151261 L8.15462185,12.9966387 L8.64537815,12.9966387 C8.96134454,12.9966387 9.09579832,12.9529412 9.22016807,12.8319328 C9.33445378,12.7176471 9.39159664,12.5327731 9.39159664,12.2806723 C9.39159664,12.0453782 9.34117647,11.8739496 9.22689076,11.7663866 C9.10588235,11.6588235 8.92436975,11.6151261 8.6184874,11.6151261 Z M22.1176471,3.98487395 L1.50588235,3.98487395 C1.22016807,3.98487395 0.98487395,4.21008403 0.98487395,4.48907563 L0.98487395,6.89915966 L22.6386555,6.89915966 L22.6386555,4.48907563 C22.6386555,4.21008403 22.4067227,3.98487395 22.1176471,3.98487395 Z M5.02857143,4.8487395 C5.40840336,4.8487395 5.71428571,5.14453782 5.71428571,5.51092437 C5.71428571,5.87731092 5.40840336,6.17310924 5.02857143,6.17310924 C4.6487395,6.17310924 4.34285714,5.87394958 4.34285714,5.51092437 C4.34285714,5.14453782 4.6487395,4.8487395 5.02857143,4.8487395 Z M7.08571429,4.8487395 C7.46554622,4.8487395 7.76806723,5.14453782 7.76806723,5.51092437 C7.76806723,5.87731092 7.46554622,6.17310924 7.08571429,6.17310924 C6.70588235,6.17310924 6.4,5.87394958 6.4,5.51092437 C6.4,5.14453782 6.70588235,4.8487395 7.08571429,4.8487395 Z M2.97478992,4.8487395 C3.35462185,4.8487395 3.6605042,5.14453782 3.6605042,5.51092437 C3.6605042,5.87731092 3.35462185,6.17310924 2.97478992,6.17310924 C2.59495798,6.17310924 2.28907563,5.87394958 2.28907563,5.51092437 C2.28907563,5.14453782 2.59495798,4.8487395 2.97478992,4.8487395 Z" id="API_1Light"></path>
        </g>
    </g>
</svg>

<svg width="24" height="24" viewBox="0 0 24 24" xmlns="http://www.w3.org/2000/svg"><path d="M22.118 3.03c.83 0 1.506.656 1.506 1.46v14.8c0 .802-.676 1.458-1.506 1.458H1.506c-.83 0-1.506-.656-1.506-1.459V4.49C0 3.686.676 3.03 1.506 3.03h20.612zm.52 4.82H.986v11.44c0 .278.232.503.52.503H14.8a.944.944 0 01.255-.467l.508-.49a4.059 4.059 0 01-.168-.539h-.612c-.568 0-1.028-.447-1.028-.998v-.796c0-.548.46-.999 1.028-.999h.612c.04-.165.094-.356.168-.541l-.508-.49a.99.99 0 01-.302-.71c0-.272.108-.521.306-.713l.598-.581c.39-.38 1.08-.38 1.47 0l.51.494a4.58 4.58 0 01.551-.168v-.592c0-.55.464-.998 1.029-.998h.823c.568 0 1.029.447 1.029.998v.592c.192.047.373.1.551.168l.511-.497c.141-.138.32-.229.508-.27V7.85zm-3.421 4.31l-.044 1.025a.48.48 0 01-.413.47 3.67 3.67 0 00-1.015.303.506.506 0 01-.569-.09l-.75-.727-.675.582.75.793a.465.465 0 01.08.571c-.134.226-.245.65-.299.962a.486.486 0 01-.487.4H14.78l-.044.84 1.059.044c.242 0 .447.168.487.4.054.316.165.733.3.961a.47.47 0 01-.081.575l-.538.518h6.155v.003a.514.514 0 00.52-.504v-5.933l-.56.518a.502.502 0 01-.565.09 3.652 3.652 0 00-1.016-.306.477.477 0 01-.413-.47v-.982l-.867-.043zm.407 2.218c1.626 0 2.598.941 2.598 2.518 0 1.576-.972 2.517-2.598 2.517-1.627 0-2.599-.94-2.599-2.517s.972-2.518 2.599-2.518zm0 .958c-1.086 0-1.614.511-1.614 1.563s.528 1.563 1.614 1.563c1.085 0 1.613-.51 1.613-1.563 0-1.052-.528-1.563-1.613-1.563zM8.659 10.9c.679 0 1.11.094 1.388.356.235.216.35.552.35 1.016 0 .463-.108.81-.323 1.052-.252.285-.645.416-1.217.416h-.696v1.496h-.988V10.9H8.66zm-3.556 0l1.563 4.333h-1.06l-.359-1.09H3.842l-.336 1.09h-.941l1.448-4.333h1.09zm6.991 0v4.333h-.988v-4.333h.988zm-7.56 1.083h-.013l-.45 1.445h.937l-.474-1.445zm4.084-.367h-.463v1.382h.49c.316 0 .45-.044.575-.165.114-.114.172-.3.172-.551 0-.236-.05-.407-.165-.515-.121-.107-.303-.15-.609-.15zm13.5-7.63H1.506a.514.514 0 00-.521.504V6.9h21.654V4.49a.512.512 0 00-.521-.504zm-17.09.864c.38 0 .686.296.686.662a.673.673 0 01-.685.662c-.38 0-.686-.3-.686-.662 0-.366.306-.662.686-.662zm2.058 0a.67.67 0 01.682.662.67.67 0 01-.682.662c-.38 0-.686-.3-.686-.662 0-.366.306-.662.686-.662zm-4.111 0c.38 0 .686.296.686.662a.673.673 0 01-.686.662c-.38 0-.686-.3-.686-.662 0-.366.306-.662.686-.662z" fill="#5CB615" fill-rule="nonzero"/></svg>
